X:87
%
T:Marcelle Du Champ's Jig
N:Inspired by the ZBS Jack Flander's series about a green velvet chair...
N:on March 21, 2003
C:copyright (c) 2003 R. S. Doiel, all rights reserved.
L:1/8
M:6/8
Q:1/4=140
%%MIDI chordvol 0
%%MIDI bassvol 0
K:G treble
%%MIDI program 1 79 % Whistle
%
|: "Em" GAB GBB | "Em" GAB  "G" EFD | "Em" GAB GBB | "Em" GAB "G" EFD |
"G" dBG "Em" eBG | "G" fBG gBG | "G" BGG "Em" BEE | "Bm" BFF BDD :|
|: "Am" Aee AGG | "Am" Add AEE | "Am" AcA "G" GBG | "Em" EGE "D" D3 |
"C" cAG cAG | "G" BGE BGd | "Am" edd cdd | "G" BGG EGG ||
"Am" EAA EAA | "G" BcB BcB | "Am" EAA EAA | "C" cEF "G" G3 |
"Am" EAA EAA | "G" BcB BcB | "Am" EAA EAA |1 "G" cBA "Am" E3 :|2 "G" cBA G3 |]



